icon-themes/breeze_svg/cmd/lc_basicideappear.svg

<svg viewBox="0 0 24 24" xmlns="http://www.w3.org/2000/svg"><path d="m10 4v1.078125c-1.1877549.1690482-2.2760509.6319772-3.1914062 1.3164062l-1.3945313-1.3945312-1.4140625 1.4140625 1.3945312 1.3945313c-.6844291.9153552-1.147358 2.0036513-1.3164062 3.1914062h-1.078125v2h1.078125c.1690482 1.187755.6319772 2.276051 1.3164062 3.191406l-1.3945312 1.394532 1.4140625 1.414062 1.3945313-1.394531c.9153552.684429 2.0036513 1.147358 3.1914062 1.316406v1.078125h2v-1.078125c.710669-.101147 1.37819-.320536 2-.619141v-1.111328c-.607406.349982-1.280117.598711-2 .71875-.325654.054303-.658464.089844-1 .089844s-.674346-.035541-1-.089844c-.9132431-.152282-1.7540369-.506013-2.4765625-1.019531-.547196-.388907-1.0251558-.866867-1.4140625-1.414063-.5135181-.722522-.8672486-1.563319-1.0195312-2.476562-.0543026-.325654-.0898438-.658464-.0898438-1s.0355412-.674346.0898438-1c.1522826-.913243.5060131-1.7540369 1.0195312-2.4765625.3889067-.547196.8668665-1.0251558 1.4140625-1.4140625.7225256-.5135181 1.5633194-.8672486 2.4765625-1.0195312.325654-.0543026.658464-.0898438 1-.0898438s.674346.0355407 1 .0898438c.913243.1522826 1.754038.5060131 2.476562 1.0195312.547198.3889067 1.025156.8668665 1.414063 1.4140625.513518.7225252.867249 1.5633195 1.019531 2.4765625.054303.325654.089844.658464.089844 1s-.035544.674346-.089844 1c-.057677.345891-.152415.677384-.265625 1h1.050781c.096236-.324953.177695-.656649.226563-1h1.078125v-2h-1.078125c-.169048-1.1877549-.631977-2.276051-1.316406-3.1914062l1.394531-1.3945313-1.414062-1.4140625-1.394532 1.3945312c-.915355-.6844291-2.003651-1.147358-3.191406-1.3164062v-1.078125zm-1 5v6l5-3z" fill="#4d4d4d"/><path d="m19 14-4 4v2h2l4-4zm-.310547 1.689453.591797.591797c-1.032854 1.021691-2.091495 2.111353-2.96875 3l-.59375-.59375z" fill="#f47750"/></svg>

<svg viewBox="0 0 24 24" xmlns="http://www.w3.org/2000/svg">
  <path
     style="fill:#4d4d4d"
     d="M 10 4 L 10 5.078125 C 8.8122451 5.2471732 7.7239491 5.7101022 6.8085938 6.3945312 L 5.4140625 5 L 4 6.4140625 L 5.3945312 7.8085938 C 4.7101021 8.723949 4.2471732 9.8122451 4.078125 11 L 3 11 L 3 13 L 4.078125 13 C 4.2471732 14.187755 4.7101022 15.276051 5.3945312 16.191406 L 4 17.585938 L 5.4140625 19 L 6.8085938 17.605469 C 7.723949 18.289898 8.8122451 18.752827 10 18.921875 L 10 20 L 12 20 L 12 18.921875 C 12.710669 18.820728 13.37819 18.601339 14 18.302734 L 14 17.191406 C 13.392594 17.541388 12.719883 17.790117 12 17.910156 C 11.674346 17.964459 11.341536 18 11 18 C 10.658464 18 10.325654 17.964459 10 17.910156 C 9.0867569 17.757874 8.2459631 17.404143 7.5234375 16.890625 C 6.9762415 16.501718 6.4982817 16.023758 6.109375 15.476562 C 5.5958569 14.75404 5.2421264 13.913243 5.0898438 13 C 5.0355412 12.674346 5 12.341536 5 12 C 5 11.658464 5.0355412 11.325654 5.0898438 11 C 5.2421264 10.086757 5.5958569 9.2459631 6.109375 8.5234375 C 6.4982817 7.9762415 6.9762415 7.4982817 7.5234375 7.109375 C 8.2459631 6.5958569 9.0867569 6.2421264 10 6.0898438 C 10.325654 6.0355412 10.658464 6 11 6 C 11.341536 6 11.674346 6.0355407 12 6.0898438 C 12.913243 6.2421264 13.754038 6.5958569 14.476562 7.109375 C 15.02376 7.4982817 15.501718 7.9762415 15.890625 8.5234375 C 16.404143 9.2459627 16.757874 10.086757 16.910156 11 C 16.964459 11.325654 17 11.658464 17 12 C 17 12.341536 16.964456 12.674346 16.910156 13 C 16.852479 13.345891 16.757741 13.677384 16.644531 14 L 17.695312 14 C 17.791548 13.675047 17.873007 13.343351 17.921875 13 L 19 13 L 19 11 L 17.921875 11 C 17.752827 9.8122451 17.289898 8.723949 16.605469 7.8085938 L 18 6.4140625 L 16.585938 5 L 15.191406 6.3945312 C 14.276051 5.7101021 13.187755 5.2471732 12 5.078125 L 12 4 L 10 4 z M 9 9 L 9 15 L 14 12 L 9 9 z "
     />
  <path
     style="fill:#f47750"
     d="m 19,14 -4,4 v 2 h 2 l 4,-4 z m -0.310547,1.689453 0.591797,0.591797 c -1.032854,1.021691 -2.091495,2.111353 -2.96875,3 L 15.71875,18.6875 Z"
     />
</svg>
